src/extras-openmoji/ui-element/E25E.svg

<svg id="emoji" viewBox="0 0 72 72" xmlns="http://www.w3.org/2000/svg">
  <g id="grid">
    <path fill="#b3b3b3" d="M68,4V68H4V4H68m4-4H0V72H72V0Z"/>
    <path fill="none" stroke="#00a5ff" stroke-miterlimit="10" stroke-width="0.1" d="M12.923,10.9583H59.0769A1.9231,1.9231,0,0,1,61,12.8814V59.0352a1.9231,1.9231,0,0,1-1.9231,1.9231H12.9231A1.9231,1.9231,0,0,1,11,59.0352V12.8813A1.923,1.923,0,0,1,12.923,10.9583Z"/>
    <rect x="16" y="4" rx="2.2537" width="40" height="64" fill="none" stroke="#00a5ff" stroke-miterlimit="10" stroke-width="0.1"/>
    <rect x="16" y="4" rx="2.2537" width="40" height="64" transform="translate(72) rotate(90)" fill="none" stroke="#00a5ff" stroke-miterlimit="10" stroke-width="0.1"/>
    <circle cx="36" cy="36" r="29" fill="none" stroke="#00a5ff" stroke-miterlimit="10" stroke-width="0.1"/>
  </g>
  <g id="color">
    <polygon fill="#D0CFCE" stroke="none" points="17.1289,59.7384 16.0605,34.7399 16.0812,27.7956 36.1491,8.1103 55.9811,27.9203 55.9766,43.3584 55.0371,52.0185 54.9219,59.7384 41.7865,59.1623 41.8149,41.6273 30.2251,41.6273 30.149,59.1623"/>
  </g>
  <g id="hair"/>
  <g id="skin"/>
  <g id="skin-shadow"/>
  <g id="line">
    <path fill="none" stroke="#000000" stroke-linecap="round" stroke-linejoin="round" stroke-miterlimit="10" stroke-width="2" d="M41.9901,59.9508H53.982c0.55,0,1-0.45,1-1v-24.938"/>
    <path fill="none" stroke="#000000" stroke-linecap="round" stroke-linejoin="round" stroke-miterlimit="10" stroke-width="2" d="M17.058,34.0128v24.938c0,0.55,0.45,1,1,1h12.1346"/>
    <polyline fill="none" stroke="#000000" stroke-linecap="round" stroke-linejoin="round" stroke-miterlimit="10" stroke-width="2" points="8.4925,35.5947 36.0155,7.9766 63.5958,35.3474"/>
    <polyline fill="none" stroke="#000000" stroke-linecap="round" stroke-linejoin="round" stroke-miterlimit="10" stroke-width="2" points="41.8149,59.9327 41.8149,41.6273 30.2251,41.6273 30.2251,59.9327"/>
  </g>
</svg>

<svg viewBox="0 0 72 72" xmlns="http://www.w3.org/2000/svg"><path fill="#b3b3b3" d="M68 4v64H4V4h64m4-4H0v72h72V0z"/><path fill="none" stroke="#00a5ff" stroke-miterlimit="10" stroke-width=".1" d="M12.923 10.958h46.154A1.923 1.923 0 0161 12.881v46.154a1.923 1.923 0 01-1.923 1.923H12.923A1.923 1.923 0 0111 59.035V12.881a1.923 1.923 0 011.923-1.923z"/><rect x="16" y="4" rx="2.254" width="40" height="64" fill="none" stroke="#00a5ff" stroke-miterlimit="10" stroke-width=".1"/><rect x="16" y="4" rx="2.254" width="40" height="64" transform="rotate(90 36 36)" fill="none" stroke="#00a5ff" stroke-miterlimit="10" stroke-width=".1"/><circle cx="36" cy="36" r="29" fill="none" stroke="#00a5ff" stroke-miterlimit="10" stroke-width=".1"/><g stroke-linecap="round" stroke-miterlimit="10" stroke-width="6" stroke="#fff" fill="none" stroke-linejoin="round"><path d="M41.99 59.95h11.992c.55 0 1-.45 1-1V34.014m-37.924-.001V58.95c0 .55.45 1 1 1h12.135"/><path d="M8.492 35.595L36.017 7.977l27.58 27.37M41.815 59.933V41.627h-11.59v18.306"/></g><path fill="#D0CFCE" d="M17.129 59.738L16.06 34.74l.021-6.944L36.15 8.11l19.832 19.81-.004 15.438-.94 8.66-.115 7.72-13.136-.576.029-17.535h-11.59l-.076 17.535z"/><g fill="none" stroke="#000" stroke-linecap="round" stroke-linejoin="round" stroke-miterlimit="10" stroke-width="2"><path d="M41.99 59.95h11.992c.55 0 1-.45 1-1V34.014m-37.924-.001V58.95c0 .55.45 1 1 1h12.135"/><path d="M8.492 35.595L36.017 7.977l27.58 27.37M41.815 59.933V41.627h-11.59v18.306"/></g></svg>
